src/assets/images/mouth/39.svg

<svg width="32" height="32" viewBox="0 0 32 32" fill="none" xmlns="http://www.w3.org/2000/svg">
<g filter="url(#filter0_f_30_9)">
<path fill-rule="evenodd" clip-rule="evenodd" d="M27.0165 23.5261L26.612 22.7277C26.1087 21.743 24.9433 21.3127 23.9196 21.7423C22.9097 22.166 22.3873 23.3044 22.7383 24.353L23.6272 26.9768C25.0328 26.0717 26.1625 24.8976 27.0165 23.5261ZM23.7088 23.6611C23.9064 24.1313 24.4565 24.3561 24.9269 24.1587C25.4071 23.9654 25.6317 23.4156 25.4243 22.9413C25.2267 22.4711 24.6766 22.2463 24.2062 22.4437C23.7358 22.641 23.5112 23.1908 23.7088 23.6611Z" fill="#CC532D"/>
</g>
<g opacity="0.4" filter="url(#filter1_f_30_9)">
<path fill-rule="evenodd" clip-rule="evenodd" d="M6.5 19.75C6.5 19.0596 7.05964 18.5 7.75 18.5C8.44036 18.5 9 19.0596 9 19.75V20.5H11.5V19.75C11.5 19.0596 12.0596 18.5 12.75 18.5C13.4404 18.5 14 19.0596 14 19.75V20.5H16.5V19.75C16.5 19.0596 17.0596 18.5 17.75 18.5C18.4404 18.5 19 19.0596 19 19.75V20.5H21.5V19.75C21.5 19.0596 22.0596 18.5 22.75 18.5C23.4404 18.5 24 19.0596 24 19.75V22.5H21.5V23.25C21.5 23.9404 20.9404 24.5 20.25 24.5C19.5596 24.5 19 23.9404 19 23.25V22.5H16.5V23.25C16.5 23.9404 15.9404 24.5 15.25 24.5C14.5596 24.5 14 23.9404 14 23.25V22.5H11.5V23.25C11.5 23.9404 10.9404 24.5 10.25 24.5C9.55964 24.5 9 23.9404 9 23.25V22.5H6.5V19.75Z" fill="#E4694E"/>
</g>
<path d="M7.125 19.25C7.125 18.6287 7.62868 18.125 8.25 18.125C8.87132 18.125 9.375 18.6287 9.375 19.25V21.875H7.125V19.25Z" fill="url(#paint0_linear_30_9)" stroke="url(#paint1_radial_30_9)" stroke-width="0.25"/>
<path d="M12.125 19.25C12.125 18.6287 12.6287 18.125 13.25 18.125C13.8713 18.125 14.375 18.6287 14.375 19.25V21.875H12.125V19.25Z" fill="url(#paint2_linear_30_9)" stroke="url(#paint3_radial_30_9)" stroke-width="0.25"/>
<path d="M17.125 19.25C17.125 18.6287 17.6287 18.125 18.25 18.125C18.8713 18.125 19.375 18.6287 19.375 19.25V21.875H17.125V19.25Z" fill="url(#paint4_linear_30_9)" stroke="url(#paint5_radial_30_9)" stroke-width="0.25"/>
<path d="M22.125 19.25C22.125 18.6287 22.6287 18.125 23.25 18.125C23.8713 18.125 24.375 18.6287 24.375 19.25V21.875H22.125V19.25Z" fill="url(#paint6_linear_30_9)" stroke="url(#paint7_radial_30_9)" stroke-width="0.25"/>
<path d="M9.625 20.125H11.875V22.75C11.875 23.3713 11.3713 23.875 10.75 23.875C10.1287 23.875 9.625 23.3713 9.625 22.75V20.125Z" fill="url(#paint8_linear_30_9)" stroke="url(#paint9_radial_30_9)" stroke-width="0.25"/>
<path d="M14.625 20.125H16.875V22.75C16.875 23.3713 16.3713 23.875 15.75 23.875C15.1287 23.875 14.625 23.3713 14.625 22.75V20.125Z" fill="url(#paint10_linear_30_9)" stroke="url(#paint11_radial_30_9)" stroke-width="0.25"/>
<path d="M19.625 20.125H21.875V22.75C21.875 23.3713 21.3713 23.875 20.75 23.875C20.1287 23.875 19.625 23.3713 19.625 22.75V20.125Z" fill="url(#paint12_linear_30_9)" stroke="url(#paint13_radial_30_9)" stroke-width="0.25"/>
<path d="M29.1897 24.0257L29.19 24.0259C30.0583 24.774 30.1079 26.1109 29.3 26.9184L28.918 27.3002C28.1099 28.1078 26.7722 28.0582 26.0237 27.1904L26.0234 27.1901L23.6043 24.4011C23.6043 24.4011 23.6042 24.401 23.6042 24.4009C22.9257 23.6129 22.9756 22.4357 23.7041 21.7076C24.4428 20.9692 25.6102 20.9291 26.3991 21.6077C26.3992 21.6078 26.3992 21.6078 26.3993 21.6079L29.1897 24.0257ZM24.0579 23.5636C24.4673 23.9727 25.1402 23.9729 25.5498 23.5642C25.9709 23.1547 25.9709 22.4805 25.5498 22.071C25.1402 21.6623 24.4673 21.6625 24.0579 22.0716C23.6483 22.481 23.6483 23.1541 24.0579 23.5636Z" fill="url(#paint14_linear_30_9)" stroke="url(#paint15_radial_30_9)" stroke-width="0.25"/>
<path fill-rule="evenodd" clip-rule="evenodd" d="M9.25 22L9.25 20H9.5L9.5 22H9.25ZM14.25 22V20H14.5V22H14.25ZM19.25 20V22H19.5V20H19.25Z" fill="#D6A5F5"/>
<defs>
<filter id="filter0_f_30_9" x="20.6292" y="19.5762" width="8.38745" height="9.40051" filterUnits="userSpaceOnUse" color-interpolation-filters="sRGB">
<feFlood flood-opacity="0" result="BackgroundImageFix"/>
<feBlend mode="normal" in="SourceGraphic" in2="BackgroundImageFix" result="shape"/>
<feGaussianBlur stdDeviation="1" result="effect1_foregroundBlur_30_9"/>
</filter>
<filter id="filter1_f_30_9" x="5.5" y="17.5" width="19.5" height="8" filterUnits="userSpaceOnUse" color-interpolation-filters="sRGB">
<feFlood flood-opacity="0" result="BackgroundImageFix"/>
<feBlend mode="normal" in="SourceGraphic" in2="BackgroundImageFix" result="shape"/>
<feGaussianBlur stdDeviation="0.5" result="effect1_foregroundBlur_30_9"/>
</filter>
<linearGradient id="paint0_linear_30_9" x1="9" y1="18.5" x2="7.5" y2="22" gradientUnits="userSpaceOnUse">
<stop stop-color="#E9C9FF"/>
<stop offset="1" stop-color="#E3B9FF"/>
</linearGradient>
<radialGradient id="paint1_radial_30_9" cx="0" cy="0" r="1" gradientUnits="userSpaceOnUse" gradientTransform="translate(9.5 18.5) rotate(135) scale(2.12132 1.32583)">
<stop stop-color="#FFEFFF"/>
<stop offset="1" stop-color="#FFF2FF" stop-opacity="0"/>
</radialGradient>
<linearGradient id="paint2_linear_30_9" x1="14" y1="18.5" x2="12.5" y2="22" gradientUnits="userSpaceOnUse">
<stop stop-color="#E9C9FF"/>
<stop offset="1" stop-color="#E3B9FF"/>
</linearGradient>
<radialGradient id="paint3_radial_30_9" cx="0" cy="0" r="1" gradientUnits="userSpaceOnUse" gradientTransform="translate(14.5 18.5) rotate(135) scale(2.12132 1.32583)">
<stop stop-color="#FFEFFF"/>
<stop offset="1" stop-color="#FFF2FF" stop-opacity="0"/>
</radialGradient>
<linearGradient id="paint4_linear_30_9" x1="19" y1="18.5" x2="17.5" y2="22" gradientUnits="userSpaceOnUse">
<stop stop-color="#E9C9FF"/>
<stop offset="1" stop-color="#E3B9FF"/>
</linearGradient>
<radialGradient id="paint5_radial_30_9" cx="0" cy="0" r="1" gradientUnits="userSpaceOnUse" gradientTransform="translate(19.5 18.5) rotate(135) scale(2.12132 1.32583)">
<stop stop-color="#FFEFFF"/>
<stop offset="1" stop-color="#FFF2FF" stop-opacity="0"/>
</radialGradient>
<linearGradient id="paint6_linear_30_9" x1="24" y1="18.5" x2="22.5" y2="22" gradientUnits="userSpaceOnUse">
<stop stop-color="#E9C9FF"/>
<stop offset="1" stop-color="#E3B9FF"/>
</linearGradient>
<radialGradient id="paint7_radial_30_9" cx="0" cy="0" r="1" gradientUnits="userSpaceOnUse" gradientTransform="translate(24.5 18.5) rotate(135) scale(2.12132 1.32583)">
<stop stop-color="#FFEFFF"/>
<stop offset="1" stop-color="#FFF2FF" stop-opacity="0"/>
</radialGradient>
<linearGradient id="paint8_linear_30_9" x1="11.5" y1="20.5" x2="10" y2="24" gradientUnits="userSpaceOnUse">
<stop stop-color="#E9C9FF"/>
<stop offset="1" stop-color="#E3B9FF"/>
</linearGradient>
<radialGradient id="paint9_radial_30_9" cx="0" cy="0" r="1" gradientUnits="userSpaceOnUse" gradientTransform="translate(12 20.5) rotate(135) scale(2.12132 1.32583)">
<stop stop-color="#FFEFFF"/>
<stop offset="1" stop-color="#FFF2FF" stop-opacity="0"/>
</radialGradient>
<linearGradient id="paint10_linear_30_9" x1="16.5" y1="20.5" x2="15" y2="24" gradientUnits="userSpaceOnUse">
<stop stop-color="#E9C9FF"/>
<stop offset="1" stop-color="#E3B9FF"/>
</linearGradient>
<radialGradient id="paint11_radial_30_9" cx="0" cy="0" r="1" gradientUnits="userSpaceOnUse" gradientTransform="translate(17 20.5) rotate(135) scale(2.12132 1.32583)">
<stop stop-color="#FFEFFF"/>
<stop offset="1" stop-color="#FFF2FF" stop-opacity="0"/>
</radialGradient>
<linearGradient id="paint12_linear_30_9" x1="21.5" y1="20.5" x2="20" y2="24" gradientUnits="userSpaceOnUse">
<stop stop-color="#E9C9FF"/>
<stop offset="1" stop-color="#E3B9FF"/>
</linearGradient>
<radialGradient id="paint13_radial_30_9" cx="0" cy="0" r="1" gradientUnits="userSpaceOnUse" gradientTransform="translate(22 20.5) rotate(135) scale(2.12132 1.32583)">
<stop stop-color="#FFEFFF"/>
<stop offset="1" stop-color="#FFF2FF" stop-opacity="0"/>
</radialGradient>
<linearGradient id="paint14_linear_30_9" x1="28.6" y1="21.875" x2="26.788" y2="28.6397" gradientUnits="userSpaceOnUse">
<stop stop-color="#E9C9FF"/>
<stop offset="1" stop-color="#E3B9FF"/>
</linearGradient>
<radialGradient id="paint15_radial_30_9" cx="0" cy="0" r="1" gradientUnits="userSpaceOnUse" gradientTransform="translate(30 21.875) rotate(147.995) scale(4.95284 2.78249)">
<stop stop-color="#FFEFFF"/>
<stop offset="1" stop-color="#FFF2FF" stop-opacity="0"/>
</radialGradient>
</defs>
</svg>

<svg width="32" height="32" fill="none" xmlns="http://www.w3.org/2000/svg"><g filter="url(#a)"><path fill-rule="evenodd" clip-rule="evenodd" d="m27.017 23.526-.405-.798a2.1 2.1 0 0 0-2.692-.986 2.109 2.109 0 0 0-1.182 2.611l.89 2.624a10.96 10.96 0 0 0 3.389-3.45zm-3.308.135a.935.935 0 0 0 1.218.498.915.915 0 0 0 .497-1.218.935.935 0 0 0-1.218-.497.934.934 0 0 0-.497 1.217z" fill="#CC532D"/></g><g opacity=".4" filter="url(#b)"><path fill-rule="evenodd" clip-rule="evenodd" d="M6.5 19.75a1.25 1.25 0 1 1 2.5 0v.75h2.5v-.75a1.25 1.25 0 1 1 2.5 0v.75h2.5v-.75a1.25 1.25 0 1 1 2.5 0v.75h2.5v-.75a1.25 1.25 0 1 1 2.5 0v2.75h-2.5v.75a1.25 1.25 0 1 1-2.5 0v-.75h-2.5v.75a1.25 1.25 0 1 1-2.5 0v-.75h-2.5v.75a1.25 1.25 0 1 1-2.5 0v-.75H6.5v-2.75z" fill="#E4694E"/></g><path d="M7.125 19.25a1.125 1.125 0 0 1 2.25 0v2.625h-2.25V19.25z" fill="url(#c)" stroke="url(#d)" stroke-width=".25"/><path d="M12.125 19.25a1.125 1.125 0 0 1 2.25 0v2.625h-2.25V19.25z" fill="url(#e)" stroke="url(#f)" stroke-width=".25"/><path d="M17.125 19.25a1.125 1.125 0 0 1 2.25 0v2.625h-2.25V19.25z" fill="url(#g)" stroke="url(#h)" stroke-width=".25"/><path d="M22.125 19.25a1.125 1.125 0 0 1 2.25 0v2.625h-2.25V19.25z" fill="url(#i)" stroke="url(#j)" stroke-width=".25"/><path d="M9.625 20.125h2.25v2.625a1.125 1.125 0 0 1-2.25 0v-2.625z" fill="url(#k)" stroke="url(#l)" stroke-width=".25"/><path d="M14.625 20.125h2.25v2.625a1.125 1.125 0 0 1-2.25 0v-2.625z" fill="url(#m)" stroke="url(#n)" stroke-width=".25"/><path d="M19.625 20.125h2.25v2.625a1.125 1.125 0 0 1-2.25 0v-2.625z" fill="url(#o)" stroke="url(#p)" stroke-width=".25"/><path d="M29.19 24.026a1.98 1.98 0 0 1 .11 2.892l-.382.382a1.982 1.982 0 0 1-2.894-.11l-2.42-2.789a1.983 1.983 0 0 1 .1-2.693 1.976 1.976 0 0 1 2.695-.1l2.79 2.418zm-5.132-.462c.41.409 1.082.409 1.492 0a1.04 1.04 0 0 0 0-1.493 1.06 1.06 0 0 0-1.492 0 1.06 1.06 0 0 0 0 1.493z" fill="url(#q)" stroke="url(#r)" stroke-width=".25"/><path fill-rule="evenodd" clip-rule="evenodd" d="M9.25 22v-2h.25v2h-.25zm5 0v-2h.25v2h-.25zm5-2v2h.25v-2h-.25z" fill="#D6A5F5"/><defs><radialGradient id="d" cx="0" cy="0" r="1" gradientUnits="userSpaceOnUse" gradientTransform="matrix(-1.5 1.5 -.9375 -.9375 9.5 18.5)"><stop stop-color="#FFEFFF"/><stop offset="1" stop-color="#FFF2FF" stop-opacity="0"/></radialGradient><radialGradient id="f" cx="0" cy="0" r="1" gradientUnits="userSpaceOnUse" gradientTransform="matrix(-1.5 1.5 -.9375 -.9375 14.5 18.5)"><stop stop-color="#FFEFFF"/><stop offset="1" stop-color="#FFF2FF" stop-opacity="0"/></radialGradient><radialGradient id="h" cx="0" cy="0" r="1" gradientUnits="userSpaceOnUse" gradientTransform="matrix(-1.5 1.5 -.9375 -.9375 19.5 18.5)"><stop stop-color="#FFEFFF"/><stop offset="1" stop-color="#FFF2FF" stop-opacity="0"/></radialGradient><radialGradient id="j" cx="0" cy="0" r="1" gradientUnits="userSpaceOnUse" gradientTransform="matrix(-1.5 1.5 -.9375 -.9375 24.5 18.5)"><stop stop-color="#FFEFFF"/><stop offset="1" stop-color="#FFF2FF" stop-opacity="0"/></radialGradient><radialGradient id="l" cx="0" cy="0" r="1" gradientUnits="userSpaceOnUse" gradientTransform="matrix(-1.5 1.5 -.9375 -.9375 12 20.5)"><stop stop-color="#FFEFFF"/><stop offset="1" stop-color="#FFF2FF" stop-opacity="0"/></radialGradient><radialGradient id="n" cx="0" cy="0" r="1" gradientUnits="userSpaceOnUse" gradientTransform="matrix(-1.5 1.5 -.9375 -.9375 17 20.5)"><stop stop-color="#FFEFFF"/><stop offset="1" stop-color="#FFF2FF" stop-opacity="0"/></radialGradient><radialGradient id="p" cx="0" cy="0" r="1" gradientUnits="userSpaceOnUse" gradientTransform="matrix(-1.5 1.5 -.9375 -.9375 22 20.5)"><stop stop-color="#FFEFFF"/><stop offset="1" stop-color="#FFF2FF" stop-opacity="0"/></radialGradient><radialGradient id="r" cx="0" cy="0" r="1" gradientUnits="userSpaceOnUse" gradientTransform="matrix(-4.20002 2.62497 -1.4747 -2.35956 30 21.875)"><stop stop-color="#FFEFFF"/><stop offset="1" stop-color="#FFF2FF" stop-opacity="0"/></radialGradient><linearGradient id="c" x1="9" y1="18.5" x2="7.5" y2="22" gradientUnits="userSpaceOnUse"><stop stop-color="#E9C9FF"/><stop offset="1" stop-color="#E3B9FF"/></linearGradient><linearGradient id="e" x1="14" y1="18.5" x2="12.5" y2="22" gradientUnits="userSpaceOnUse"><stop stop-color="#E9C9FF"/><stop offset="1" stop-color="#E3B9FF"/></linearGradient><linearGradient id="g" x1="19" y1="18.5" x2="17.5" y2="22" gradientUnits="userSpaceOnUse"><stop stop-color="#E9C9FF"/><stop offset="1" stop-color="#E3B9FF"/></linearGradient><linearGradient id="i" x1="24" y1="18.5" x2="22.5" y2="22" gradientUnits="userSpaceOnUse"><stop stop-color="#E9C9FF"/><stop offset="1" stop-color="#E3B9FF"/></linearGradient><linearGradient id="k" x1="11.5" y1="20.5" x2="10" y2="24" gradientUnits="userSpaceOnUse"><stop stop-color="#E9C9FF"/><stop offset="1" stop-color="#E3B9FF"/></linearGradient><linearGradient id="m" x1="16.5" y1="20.5" x2="15" y2="24" gradientUnits="userSpaceOnUse"><stop stop-color="#E9C9FF"/><stop offset="1" stop-color="#E3B9FF"/></linearGradient><linearGradient id="o" x1="21.5" y1="20.5" x2="20" y2="24" gradientUnits="userSpaceOnUse"><stop stop-color="#E9C9FF"/><stop offset="1" stop-color="#E3B9FF"/></linearGradient><linearGradient id="q" x1="28.6" y1="21.875" x2="26.788" y2="28.64" gradientUnits="userSpaceOnUse"><stop stop-color="#E9C9FF"/><stop offset="1" stop-color="#E3B9FF"/></linearGradient><filter id="a" x="20.629" y="19.576" width="8.387" height="9.401" filterUnits="userSpaceOnUse" color-interpolation-filters="sRGB"><feFlood flood-opacity="0" result="BackgroundImageFix"/><feBlend in="SourceGraphic" in2="BackgroundImageFix" result="shape"/><feGaussianBlur stdDeviation="1" result="effect1_foregroundBlur_30_9"/></filter><filter id="b" x="5.5" y="17.5" width="19.5" height="8" filterUnits="userSpaceOnUse" color-interpolation-filters="sRGB"><feFlood flood-opacity="0" result="BackgroundImageFix"/><feBlend in="SourceGraphic" in2="BackgroundImageFix" result="shape"/><feGaussianBlur stdDeviation=".5" result="effect1_foregroundBlur_30_9"/></filter></defs></svg>
